src/assets/img/pour-robust.svg

<svg width="100%" height="100%" viewBox="0 0 37.5164 42.4491" xmlns="http://www.w3.org/2000/svg">
<path d="M33.3479 15.3539C33.3479 17.5424 32.9918 19.6179 32.2797 21.5806C31.5676 23.5433 30.5689 25.3409 29.2836 26.9736C28.9015 27.4599 28.7104 27.9896 28.7104 28.5628C28.7104 29.136 28.9189 29.631 29.3357 30.0478C29.7873 30.4647 30.3084 30.6471 30.8989 30.5949C31.4894 30.5428 31.9758 30.2736 32.3579 29.7873C33.9558 27.8073 35.215 25.5841 36.1356 23.1177C37.0561 20.6514 37.5164 18.0634 37.5164 15.3539C37.5164 12.5749 37.0561 9.95226 36.1356 7.48591C35.215 5.01955 33.9558 2.79636 32.3579 0.816328C31.9758 0.330005 31.4894 0.0607904 30.8989 0.00868434C30.3084 -0.0434217 29.7873 0.13895 29.3357 0.555798C28.9189 0.972647 28.7104 1.46765 28.7104 2.04082C28.7104 2.61399 28.9015 3.14373 29.2836 3.63006C30.5689 5.26271 31.5676 7.06906 32.2797 9.04909C32.9918 11.0291 33.3479 13.1307 33.3479 15.3539ZM14.5897 20.5645C16.0487 20.5645 17.2818 20.0521 18.2892 19.0274C19.2966 18.0026 19.8003 16.7782 19.8003 15.3539C19.8003 13.895 19.2966 12.6618 18.2892 11.6544C17.2818 10.647 16.0487 10.1433 14.5897 10.1433C13.1307 10.1433 11.8976 10.647 10.8902 11.6544C9.88279 12.6618 9.37909 13.895 9.37909 15.3539C9.37909 16.7782 9.88279 18.0026 10.8902 19.0274C11.8976 20.0521 13.1307 20.5645 14.5897 20.5645ZM4.16849 34.1121C4.16849 33.5216 3.96875 33.0266 3.56927 32.6271C3.16979 32.2276 2.67478 32.0279 2.08424 32.0279C1.49371 32.0279 0.9987 32.2276 0.59922 32.6271C0.19974 33.0266 0 33.5216 0 34.1121C0 36.4048 0.816329 38.3674 2.44899 40.0001C4.08164 41.6327 6.04431 42.4491 8.33697 42.4491C10.4907 42.4491 12.2536 41.9106 13.6257 40.8338C14.9979 39.7569 16.0487 38.1764 16.7782 36.0921C17.3687 34.3553 17.9332 33.1395 18.4716 32.4447C19.01 31.75 20.2519 30.6384 22.1972 29.1099C24.3509 27.3731 26.053 25.4104 27.3036 23.2219C28.5541 21.0335 29.1794 18.4108 29.1794 15.3539C29.1794 11.2202 27.7812 7.75512 24.9849 4.95876C22.1885 2.1624 18.7235 0.764222 14.5897 0.764222C10.456 0.764222 6.9909 2.1624 4.19454 4.95876C1.39818 7.75512 0 11.2202 0 15.3539C0 15.9445 0.19974 16.4395 0.59922 16.8389C0.9987 17.2384 1.49371 17.4382 2.08424 17.4382C2.67478 17.4382 3.16979 17.2384 3.56927 16.8389C3.96875 16.4395 4.16849 15.9445 4.16849 15.3539C4.16849 12.4012 5.16719 9.92621 7.16459 7.92881C9.16198 5.93141 11.637 4.93271 14.5897 4.93271C17.5424 4.93271 20.0174 5.93141 22.0148 7.92881C24.0122 9.92621 25.0109 12.4012 25.0109 15.3539C25.0109 17.7161 24.542 19.7308 23.6041 21.3982C22.6661 23.0656 21.3288 24.5593 19.5919 25.8793C17.7855 27.1994 16.3787 28.4847 15.3713 29.7352C14.3639 30.9857 13.6171 32.3405 13.1307 33.7995C12.6444 35.3279 12.0626 36.4569 11.3852 37.1864C10.7078 37.9158 9.69173 38.2806 8.33697 38.2806C7.19064 38.2806 6.20931 37.8724 5.39298 37.0561C4.57665 36.2398 4.16849 35.2584 4.16849 34.1121Z" fill="var(--fill-0, #154973)"/>
</svg>

<svg xmlns="http://www.w3.org/2000/svg" viewBox="0 0 37.516 42.449"><path fill="var(--fill-0, #154973)" d="M33.348 15.354q0 3.282-1.068 6.227a19.3 19.3 0 0 1-2.996 5.393q-.574.73-.574 1.589 0 .86.626 1.485.677.626 1.563.547t1.459-.808a23.8 23.8 0 0 0 3.778-6.67q1.38-3.7 1.38-7.763 0-4.17-1.38-7.868a23.8 23.8 0 0 0-3.778-6.67q-.573-.729-1.46-.807-.884-.078-1.562.547a2.03 2.03 0 0 0-.626 1.485q0 .86.574 1.59a19.2 19.2 0 0 1 2.996 5.418q1.068 2.97 1.068 6.305m-18.758 5.21q2.188 0 3.7-1.537 1.51-1.537 1.51-3.673 0-2.188-1.51-3.7-1.512-1.51-3.7-1.51t-3.7 1.51q-1.51 1.512-1.51 3.7 0 2.137 1.51 3.673t3.7 1.537M4.168 34.113q0-.885-.599-1.485-.6-.6-1.485-.6t-1.485.6q-.6.6-.599 1.485Q0 37.551 2.449 40q2.449 2.45 5.888 2.45 3.231-.001 5.289-1.616t3.152-4.742q.885-2.606 1.694-3.647.807-1.043 3.725-3.335 3.23-2.606 5.107-5.888 1.875-3.283 1.875-7.868 0-6.201-4.194-10.395Q20.79.764 14.59.764 8.388.764 4.195 4.96 0 9.153 0 15.354q0 .885.6 1.485.599.6 1.484.6.886 0 1.485-.6t.6-1.485q0-4.43 2.996-7.425 2.996-2.997 7.425-2.996 4.428 0 7.425 2.996t2.996 7.425q0 3.543-1.407 6.044-1.407 2.502-4.012 4.481-2.71 1.98-4.22 3.856A13 13 0 0 0 13.13 33.8q-.73 2.292-1.746 3.386-1.015 1.095-3.048 1.095-1.72 0-2.944-1.225t-1.225-2.944"/></svg>
